packages/core/src/svgs/lit.svg

<svg width="24" height="24" viewBox="0 0 24 24" fill="none" xmlns="http://www.w3.org/2000/svg">
<g clip-path="url(#clip0_31_13244)">
<path d="M0 0H24V24H0V0Z" fill="#F0F3FA"/>
<path d="M19.7141 12.3204L18.6855 11.3989L17.4611 12.8166C17.2991 12.9508 16.8114 13.1946 16.1552 13.1004C15.4991 13.0061 15.1425 13.2186 15.0461 13.3365L10.9854 17.9034L11.9998 18.8569C13.4286 17.2541 16.3746 13.9391 16.6982 13.6082C17.1028 13.1946 17.4611 13.4312 18.0388 13.5019C18.5008 13.5589 18.7549 13.4154 18.8244 13.3365L19.7141 12.3212V12.3204Z" fill="url(#paint0_linear_31_13244)"/>
<path d="M9.75445 16.7278L8.74902 15.8063L11.8343 12.3439C12.1926 11.9423 12.6893 12.2376 13.2439 12.2376C13.6875 12.2376 14.0603 12.0092 14.191 11.8948L16.5023 9.33105L17.4962 10.2645C16.8809 10.9585 16.2646 11.6517 15.6473 12.3439C15.2659 12.7695 14.7923 12.5805 14.2956 12.4622C13.8979 12.3679 13.5135 12.6122 13.3712 12.7459L9.75445 16.7278Z" fill="url(#paint1_linear_31_13244)"/>
<path d="M12.0111 5.14307L7.54964 10.1381C7.26764 10.4544 6.49793 10.4346 6.0265 10.3356C5.64936 10.2568 5.32922 10.4925 5.2165 10.6202L4.28564 11.6462L5.31336 12.5736C5.7325 12.0666 6.64322 10.9986 6.93336 10.7809C7.29593 10.5088 7.85222 10.6202 8.19079 10.7809C8.46164 10.9095 8.81136 10.7274 8.95236 10.6202L13.0508 6.09492L12.0111 5.14307Z" fill="url(#paint2_linear_31_13244)"/>
<path d="M7.54035 14.6788L6.5332 13.7295C7.0822 13.1085 8.28049 11.7576 8.56977 11.4525C8.93149 11.0706 9.5842 11.3085 10.0629 11.2982C10.4461 11.29 10.7966 11.0453 10.9243 10.9245L14.2706 7.24219L15.2589 8.2099C14.4022 9.11933 12.6271 11.0256 12.3785 11.3719C12.1299 11.7186 11.7571 11.7379 11.6019 11.704C11.3755 11.653 11.1495 11.6002 10.9239 11.5455C10.5399 11.4529 10.1898 11.6993 10.0625 11.8339L7.54035 14.6788Z" fill="url(#paint3_linear_31_13244)"/>
</g>
<defs>
<linearGradient id="paint0_linear_31_13244" x1="18.8166" y1="12.5394" x2="12.9156" y2="18.6992" gradientUnits="userSpaceOnUse">
<stop offset="0.205" stop-color="#00C967"/>
<stop offset="0.325" stop-color="#15E882"/>
<stop offset="1" stop-color="#16EA84"/>
</linearGradient>
<linearGradient id="paint1_linear_31_13244" x1="16.0313" y1="11.1958" x2="10.351" y2="16.8572" gradientUnits="userSpaceOnUse">
<stop offset="0.232" stop-color="#00C969"/>
<stop offset="0.416" stop-color="#09F183"/>
</linearGradient>
<linearGradient id="paint2_linear_31_13244" x1="10.3178" y1="10.1274" x2="7.34222" y2="13.3018" gradientUnits="userSpaceOnUse">
<stop stop-color="#1BC775"/>
<stop offset="0.715" stop-color="#0DD976"/>
</linearGradient>
<linearGradient id="paint3_linear_31_13244" x1="13.7739" y1="9.10004" x2="7.9582" y2="14.6942" gradientUnits="userSpaceOnUse">
<stop offset="0.401" stop-color="#1BD27F"/>
<stop offset="0.609" stop-color="#2FE18B"/>
</linearGradient>
<clipPath id="clip0_31_13244">
<rect width="24" height="24" fill="white"/>
</clipPath>
</defs>
</svg>

<svg xmlns="http://www.w3.org/2000/svg" width="24" height="24" fill="none" viewBox="0 0 24 24"><g clip-path="url(#a)"><path fill="#F0F3FA" d="M0 0h24v24H0z"/><path fill="url(#b)" d="m19.714 12.32-1.028-.921-1.225 1.418c-.162.134-.65.378-1.306.283-.656-.094-1.013.119-1.109.236l-4.06 4.567 1.014.954c1.429-1.603 4.375-4.918 4.698-5.249.405-.413.763-.177 1.34-.106.463.057.717-.087.786-.166l.89-1.015"/><path fill="url(#c)" d="m9.754 16.728-1.005-.922 3.085-3.462c.359-.402.855-.106 1.41-.106.444 0 .816-.229.947-.343l2.311-2.564.994.934q-.922 1.041-1.849 2.079c-.381.426-.855.237-1.351.118-.398-.094-.782.15-.925.284z"/><path fill="url(#d)" d="M12.011 5.143 7.55 10.138c-.282.316-1.052.297-1.523.198-.378-.08-.698.156-.81.284l-.931 1.026 1.027.928c.42-.507 1.33-1.575 1.62-1.793.363-.272.92-.16 1.258 0 .27.128.62-.054.761-.16l4.099-4.526z"/><path fill="url(#e)" d="m7.54 14.679-1.007-.95a181 181 0 0 1 2.037-2.276c.361-.382 1.014-.144 1.493-.155.383-.008.734-.253.861-.373l3.347-3.683.988.968c-.857.91-2.632 2.816-2.88 3.162a.79.79 0 0 1-.777.332 43 43 0 0 1-.678-.159c-.384-.092-.734.154-.861.289z"/></g><defs><linearGradient id="b" x1="18.817" x2="12.916" y1="12.539" y2="18.699" gradientUnits="userSpaceOnUse"><stop offset=".205" stop-color="#00C967"/><stop offset=".325" stop-color="#15E882"/><stop offset="1" stop-color="#16EA84"/></linearGradient><linearGradient id="c" x1="16.031" x2="10.351" y1="11.196" y2="16.857" gradientUnits="userSpaceOnUse"><stop offset=".232" stop-color="#00C969"/><stop offset=".416" stop-color="#09F183"/></linearGradient><linearGradient id="d" x1="10.318" x2="7.342" y1="10.127" y2="13.302" gradientUnits="userSpaceOnUse"><stop stop-color="#1BC775"/><stop offset=".715" stop-color="#0DD976"/></linearGradient><linearGradient id="e" x1="13.774" x2="7.958" y1="9.1" y2="14.694" gradientUnits="userSpaceOnUse"><stop offset=".401" stop-color="#1BD27F"/><stop offset=".609" stop-color="#2FE18B"/></linearGradient><clipPath id="a"><path fill="#fff" d="M0 0h24v24H0z"/></clipPath></defs></svg>
